X:1
T:G Major Timothy Swan, 1801
T:Nahum Tate and Nicholas Brady, 1698 New Version (Psalm 108) 86. 86. (C. M.)
T:Lutestring
T:Transcribed from Swan's New England Harmony, 1801.
%%score [ 1 2 3 4 ]
L:1/8
Q:1/4=120
M:3/4
K:G
V:1 treble nm="Treble" snm="Tr."
V:2 treble nm="Counter" snm="C."
V:3 treble-8 nm="Tenor" snm="T."
V:4 bass nm="Bass" snm="B."
V:1
"^1. O  God,  my  heart  is  ful – ly      bent   To magnify thy name;   My   tongue  with  cheer–ful   songs   of   praise   Shall  ce  – le  –" d2 | %1
 d4 d2 | g4 d2 | (B2 c2) d2 | (g2 d2) e2 | dd d2 d2 | B4 ge | (d2 c2) B2 | (B2 cB) AG | %9
 (A2 dc) BA | B4 d2 | (e2 f2) g2 | %12
"^1. –brate thy fame.   Awake,  my   lute;     nor     thou,   my   harp,   Thy    war   –   bling         notes     de  –  lay;        While    I   with      ear   –   ly" d4 d2 | %13
 B4 z2 | d2 g2 fe | d4 d2 | G4 e2 | (g2 f2) e2 | B4 B2 | B4 e2 | d4 z2 | z6 | z6 | %23
"^1.  hymns       of         joy         Pre  –  vent       the       daw  – ning     day,    Pre   –  vent      the       daw      –    ning      day." z6 | %24
 z4 B>c | (d2 G2) B>c | (d2 G2) B>c | d4 d>c | (B2 g2) G2 | (Ge d2) (3ABc | B6 |] %31
V:2
"^2. To all the  listening  tribes,  O   Lord,   Thy wonders I will tell;  And  to  those   na  –  tions     sing     thy  praise  That  round  a –" G2 | %1
 G4 G2 | B4 B2 | (B2 A2) GB | G4 A2 | BG F2 F2 | G4 z2 | z6 | z6 | z6 | z4 G2 | (G2 F2) E2 | %12
"^2. –bout us dwell:   Because  thy   mer  –  cy's  boundless  height  The     high    –   est           heav'n  transcends,     And    far    be  – yond   th'a –" D4 F2 | %13
 G4 z2 | G2 B2 B2 | A4 F2 | G4 G2 | (E2 F2) G2 | (G>A G2) A2 | B4 A2 | G4 z2 | z6 | z6 | %23
"^2. – spi    –   ring    clouds     Thy      faith  –  ful       truth     ex   –  tends,   Thy     faith  – ful         truth         ex    –   tends." z6 | %24
 z4 G>A | B4 G>A | B4 B2 | B4 D2 | G4 G2 | (E2 F2) F2 | G6 |] %31
V:3
"^3. Be thou, O God, ex  – al  – ted     high  Above the starry frame;  And  let    the  world,   with    one        con–sent,  Con – fess       thy" G2 | %1
 B4 B2 | B4 B2 | (G2 A2) B2 | (e2 d2) c2 | BB B2 A2 | G4 GA | (B2 A2) G2 | G4 FE | (D2 BA) GF | %10
 G4 D2 | (e2 d2 c/B/)A | %12
"^3. glorious name.  That  all   thy    cho  –  sen     peo – ple   thee    Their    Sa      –     vior         may     de  –  clare:        Let     thy    right   hand  pro –" G4 F2 | %13
 G4 z2 | g2 d2 dg | (g2 f2) ed | e4 eg | (e2 d2) c2 | B4 (3def | (g2 d2) ce | B4 z2 | cB AG GD | %22
 (G2 A2) B2 | %23
"^3. – tect           me        still,     And      an    –   swer     thou     my    prayer,  And     an    –   swer    thou           my       prayer." cBed cB | %24
 (A2 G2) d>c | (B2 g2) d>c | (B2 g2) d>c | B4 G>A | B4 e>d | (c2 B2) A2 | G6 |] %31
V:4
"^4. O,  to  thy servants   in      dis –tress  Thy speedy succor send!  For  vain   it      is         on       hu    –   man    aid  For   safe – ty" G,2 | %1
 G,4 G,2 | G,4 G,2 | (G,2 F,2) E,2 | (C2 B,2) A,2 | G,G, B,,2 D,2 | G,4 z2 | z6 | z6 | z6 | z4 D2 | %11
 (C2 B,2) C2 | %12
"^4. to  depend.          Then  valiant   acts   shall     we     per –  form,   If       thou           thy         power  dis –close;        For    God      it        is,    and" D4 D,2 | %13
 G,4 z2 | G,2 G,2 B,C | D4 D,2 | C4 C,2 | (C,2 D,2) E,F, | G,4 B,,D, | G,4 A,2 | B,4 z2 | z6 | z6 | %23
"^4.    God           a    –    lone,     That     treads  down    all          our     foes,   That     treads   down    all            our           foes." z6 | %24
 z4 B,>A, | G,4 B,>A, | G,4 G,>A, | B,4 G,>F, | (E,2 G,2) C,2 | (C,2 D,2) D,2 | [G,,G,]6 |] %31

